X:19
T:Bonjoer
%%staffsep 20
C:Traditioneel
O:Winksele-Delle (Vlaanderen)
Z:Bert Van Vreckem <http://flanders.blackmill.net/music/>
M:2/4
L:1/8
K:G
z D EF|Gz/G/ GG|(GB) AG|G2 F2|z2 d2|F4|z2 d2|G4|
w: *** **** **** ** Bon-jour Bon-soir
z D EF|Gz/G/ GG|(GB) AG|G2 F2|z2 d2|F4|z2 d2|(G4|G) z z (B/c/) ||
w: *** **** **** ** Bon-jour Bon-soir_ **
P:B
%%staffsep 45
Q:1/4=126
|:dg fe|{e}dc c(c/d/)|eA A(B/c/)|dG (G/A/B/c/) |
dg fe|{e}dc c(c/d/)|eA (d/c/B/A/) |[1 GB G(B/c/) :|[2 GB Gz |]

